X:1
T:O the Crown
T:James McGranahan, 1887
T:O the Crown
T:Public Domain
T:Public Domain
C:James McGranahan, 1887
Z:Public Domain
%%score 1 ( 2 3 )
L:1/8
M:4/4
K:A
V:1 treble 
V:2 bass 
V:3 bass 
V:1
 [A,C]>[B,D] | [CE]>[CE] [CE]>[CE] [CE]2 [CA]>[EG] | [EG][DF] [DF]>[DF] [DF]2 [EG]>[EA] | %3
w: 1.~Wea- ry|glean- er in the field, poor or|plen- ty be the yield, La- bor|
w: 2.~Je- sus|now has gone a- bove to com-|plete His work of love; His re-|
w: 3.~O how|light will seem the grief, and the|toil- some way how brief, When a|
 [DB]2 [DB]>[DB] [DB][Fd] [Ec]>[DB] | [CA]4 [CE]2 [A,C]>[B,D] | [CE][Ec] [Ec]>[Ec] [Ec]2 [DB][CA] | %6
w: on for the Mas- ter, no- thing|fear- ing, There’s a|prom- ise of re- ward, at the|
w: turn, day by day, is sure- ly|near- ing, When His|own He will re- ceive, and a|
w: crown in the glo- ry we are|wear- ing, O the|rap- ture who can tell, as for-|
 [DF][Fd] [Fd]>[Fd] [Fd]2 [Fc]>[EB] | [Ee]2 [FA]>[FB] [Ec]2 [Ed]>[DB] | [DB]4 [CA]2 || %9
w: com- ing of the Lord, Un- to|all them that love His ap-|pear- ing.|
w: wel- come He will give, Un- to|all them that love His ap-|pear- ing.|
w: ev- er- more we dwell, With re-|deemed ones that loved His ap-|pear- ing.|
"^Refrain" [EG]>[FA] | [GB]4- [GB]>[Bd] [Ac]>[GB] | [FA]6 [FA]>[^EB] | %12
w: O the|crown, * the glo- ry|crown, O the|
w: |||
w: |||
 [Fc]3 [Fc] [Ac][AB][AB][FA] | [AB]2 [GB]4 [A,C]>[B,D] | [CE]>[Ec] [Ec]>[Ec] [Ec]2 [DB][CA] | %15
w: day, the hap- py day is|near- ing, When the|crown of rich re- ward Shall be|
w: |||
w: |||
 [DF]<[Fd] [Fd]>[Fd] [Fd]2 [Ec]>[EB] | [Ee]2 [FA]>[FB] [Ec]2 [Ed]>[DB] | [DB]4 [CA]2 |] %18
w: giv- en by the Lord, Un- to|all them that love His ap-|pear- ing.|
w: |||
w: |||
V:2
 [A,,E,]>[A,,E,] | [A,,A,]>[A,,A,] [A,,A,]>[A,,A,] [A,,A,]2 [A,,A,]>[C,A,] | %2
w: ~ ~|~ ~ ~ ~ ~ ~ ~|
 [D,A,][D,A,] [D,A,]>[D,A,] [D,A,]2 [D,B,]>[C,A,] | %3
w: ~ ~ ~ ~ ~ ~ ~|
 [B,,F,]2 [B,,F,]>[B,,F,] [E,G,][E,G,] [E,G,]>[E,G,] | [A,,A,]4 [A,,A,]2 [A,,A,]>[A,,A,] | %5
w: ~ ~ ~ ~ ~ ~ ~|~ ~ ~ ~|
 [A,,A,][A,,A,] [A,,A,]>[A,,A,] [A,,A,]2 [A,,A,][A,,A,] | %6
w: ~ ~ ~ ~ ~ ~ ~|
 [D,A,][D,A,] [D,A,]>[D,A,] [D,A,]2 [A,,A,]>[B,,A,] | [C,A,]2 [D,A,]>[D,A,] [E,A,]2 [E,B,]>[E,G,] | %8
w: ~ ~ ~ ~ ~ ~ ~|~ ~ ~ ~ ~ ~|
 [E,G,]4 [A,,A,]2 || z2 | z3/2 [E,D]/ [E,D]>[E,D] [E,D]2 z2 | %11
w: ~ ~||The glo- ry crown,|
 z3/2 [F,C]/ [F,C]>[F,C] [F,C]2 [F,C]>[G,C] | [A,C]3 [A,C] [B,^D][B,D][B,,D][B,,D] | %13
w: the glo- ry crown, * *||
 [E,F]2 E,3 D, [C,A,]>[B,,A,] | [A,,A,]>[A,,A,] [A,,A,]>[A,,A,] [A,,A,]2 [A,,A,][A,,A,] | %15
w: ||
 [D,A,]<[D,A,] [D,A,]>[D,A,] [D,A,]2 [A,,A,]>[B,,A,] | %16
w: |
 [C,A,]2 [D,A,]>[D,A,] [E,A,]2 [E,B,]>[E,G,] | [E,G,]4 [A,,A,]2 |] %18
w: ||
V:3
 x2 | x8 | x8 | x8 | x8 | x8 | x8 | x8 | x6 || x2 | x8 | x8 | x8 | x2 E4 x2 | x8 | x8 | x8 | x6 |] %18

